!!!OTL: Yao shi laotian bu yia yu
!!!ARE: Asia, China,ÿHubei, Dawu
!! I, 435
!!!SCT: C1446
!!!YEM: Copyright 1995, estate of Helmut Schaffrath.
**kern
*ICvox
*Ivox
*M2/4
*k[]
*C:
{8ee
8cc
4dd
=1
8dd
16ee
16dd
8cc
8a
=2
8ee
16dd
16ee
8dd
16cc
16a
=3
8.cc
16a
4g}
=4
{8a
16a
16cc
4dd
=5
8cc
8dd
8cc
8a
=6
8cc
8dd
8cc
8a
=7
8.a
16g
4g}
=8
{8a
16cc
16dd
8dd
8dd
=9
8cc
8dd
8cc
8a
=10
8a
4a
8a
=11
8dd
8dd
4cc}
=12
{8a
16cc
16dd
8dd
8dd
=13
8ee
8dd
8cc
8a
=14
8dd
16cc
16dd
8cc
8a
=15
4a
4g}
==
!!!AGN: Shange, Tiange, Cheshuige
!!!ONB: ESAC (Essen Associative Code) Database: HUANG
!!!AMT: simple duple
!!!AIN: vox
!!!EED: Helmut Schaffrath
!!!EEV: 1.0
*-
